icons/font.svg

<?xml version="1.0" encoding="UTF-8"?>
<svg width="50" height="50" version="1.1" viewBox="0 0 50 50" xmlns="http://www.w3.org/2000/svg">
<path d="m22.5 5c-2.0117 0-2.5 2.5-2.5 2.5l-11.25 32.5h-1.25s-1.25 0-1.25 1.25v2.5s0 1.25 1.25 1.25h10s1.25 0 1.25-1.25v-2.5s0-1.25-1.25-1.25h-1.25l1.75-5h14l1.75 5h-1.25s-1.25 0-1.25 1.25v2.5s0 1.25 1.25 1.25h10s1.25 0 1.25-1.25v-2.5s0-1.25-1.25-1.25h-1.25l-11.25-32.5s-0.64873-2.5-2.5-2.5zm2.5 10 4.8125 13.75h-9.625z"/>
</svg>

<?xml version="1.0" encoding="UTF-8" standalone="no"?>
<svg
   xmlns:dc="http://purl.org/dc/elements/1.1/"
   xmlns:cc="http://creativecommons.org/ns#"
   xmlns:rdf="http://www.w3.org/1999/02/22-rdf-syntax-ns#"
   xmlns:svg="http://www.w3.org/2000/svg"
   xmlns="http://www.w3.org/2000/svg"
   id="svg4"
   viewBox="0 0 50 50"
   version="1.1"
   width="50"
   height="50">
  <metadata
     id="metadata10">
    <rdf:RDF>
      <cc:Work
         rdf:about="">
        <dc:format>image/svg+xml</dc:format>
        <dc:type
           rdf:resource="http://purl.org/dc/dcmitype/StillImage" />
        <dc:title></dc:title>
      </cc:Work>
    </rdf:RDF>
  </metadata>
  <defs
     id="defs8" />
  <path
     id="path2149"
     d="M 22.5,5 C 20.488305,5 20,7.5 20,7.5 L 8.75,40 H 7.5 c 0,0 -1.25,0 -1.25,1.25 v 2.5 c 0,0 0,1.25 1.25,1.25 h 10 c 0,0 1.25,0 1.25,-1.25 v -2.5 c 0,0 0,-1.25 -1.25,-1.25 H 16.25 L 18,35 h 14 l 1.75,5 H 32.5 c 0,0 -1.25,0 -1.25,1.25 v 2.5 c 0,0 0,1.25 1.25,1.25 h 10 c 0,0 1.25,0 1.25,-1.25 v -2.5 c 0,0 0,-1.25 -1.25,-1.25 H 41.25 L 30,7.5 C 30,7.5 29.351267,5 27.5,5 Z m 2.5,10 4.8125,13.75 h -9.625 z" />
</svg>
